X:1
T:Title
L:1/8
Q:1/4=110
M:6/8
K:Eb
V:1 treble nm="Church Organ, Staff"
V:1
 B e2 d c2 | B c2 B A2 | G B2 G E2 | F E2- E .E2 | G A2 G =B2 | d e2 d c2 | B f2 d c2 | %7
w: By~Arthur~Berridge * * *|||||||
 B B2- B .B2 | B c2 d B2 | c A2 B G2 | G e2 d c2 | =B c2- c .c2 | B e2 d c2 | B c2 B A2 | %14
w: |||||||
 G B2 G E2 | E E2- E E2 | e d2 c B2 | A G2 F E2 | edc BAG | F E2- E E2 | z A2 z A2 | z F2 B E2 | %22
w: ||||||||
 GFD EFG | =A B2- B .B2 | e c2 d B2 | c A2 B G2 | G A2 c B2 | d e2- e e2 | e e2- e e2 | %29
w: |||||||
 E E2- EEE- | EGA- A/ z/ cB- | Bde- e2 e- | e3 z3 |] %33
w: ||||

